X: 119
T: Free Brittons
%%VWML:Thompsons1762-2277a-p60-0 
F:http://www.vwml.org/record/Thompsons1762/2277a/p60
Z: 2014 John Chambers <jc:trillian.mit.edu>
B: Thompson "Twenty four Country Dances for the Year 1762" p.60 #1
F: http://www.vwml.org/browse/browse-collections-dance-tune-books/browse-thompsons1762# 2014 -8-11
M: C|
L: 1/8
K: G
|:\
GBGB AcAc | GBGB AD-D2 |\
GBGB cAcA | dBcA [GG,2]G[G2G,2] :|
|:\
BdBd cece | BdBd cA-A2 |\
BdBd ecge | dBcA [GG,2]G[G2G,2] :| 
%-------------------------
%%begintext align
%% Cast off one Cu: and turn .|. cast off another Cu: and
 %% turn .|: lead to the top and cast off :|. hands round all 6 :|: 
 %%endtext
%-------------------------
T: the Duke of York
%R: jig
Z: 2014 John Chambers <jc:trillian.mit.edu>
B: Thompson "Twenty four Country Dances for the Year 1762" p.60 #2
F: http://www.vwml.org/browse/browse-collections-dance-tune-books/browse-thompsons1762# 2014 -8-11
M: 6/8
L: 1/8
K: G
|:\
g2d Tc2B | AFD AFD | g2d c2B | AFD DFA |\
g2d Tc2B | AFD AFD | E2c B2A | G3 G,3 :|
|:\
G2A B2c | d2e dBG | dBG Tc2B | A2G AFD |\
AFDDFA|c2BA2B|c2e dBG|E2FG3:|
%-------------------------
%%begintext align
%% First Man go round the 2d foot it and turn his
%% partner at top .|. his partner does the same .|:
%% cross over half figure :|. right and left :|:
%%endtext
%-------------------------
